assets/Closed umbrella/Flat/closed_umbrella_flat.svg

<svg width="32" height="32" viewBox="0 0 32 32" fill="none" xmlns="http://www.w3.org/2000/svg">
<path d="M8.98596 8.90036L28.0443 27.8786C28.4357 28.2683 29.0689 28.267 29.4586 27.8757C29.8483 27.4843 29.8469 26.8511 29.4556 26.4614L10.4002 7.48615L8.98596 8.90036Z" fill="#433B6B"/>
<path fill-rule="evenodd" clip-rule="evenodd" d="M6.50555 6.4298C5.92841 5.85968 4.99948 5.86473 4.42708 6.43713C3.86025 7.00397 3.85496 7.9308 4.43708 8.51292C4.82761 8.90344 4.82761 9.53661 4.43708 9.92713C4.04656 10.3177 3.41339 10.3177 3.02287 9.92713C1.66499 8.56925 1.65971 6.37608 3.01287 5.02292C4.36014 3.67565 6.55048 3.66038 7.91341 5.00927L7.91567 5.01151L7.91567 5.01151L10.4257 7.51151C10.817 7.90125 10.8182 8.53442 10.4285 8.92572C10.0387 9.31702 9.40559 9.31829 9.01428 8.92854L6.50654 6.43079C6.50621 6.43046 6.50588 6.43013 6.50555 6.4298Z" fill="#8C5543"/>
<path d="M19.31 5.98001C18.41 5.08001 16.19 6.96001 16.17 8.49001C16.18 8.49001 16.18 8.49001 16.19 8.49001L16.17 8.51001C16.17 8.50001 16.17 8.50001 16.17 8.49001C14.44 8.49001 13.04 9.88001 13.03 11.61C11.3 11.6 9.88998 13 9.87998 14.73C8.40998 14.72 6.60998 16.97 7.44998 17.8C11.52 21.85 26.96 28.94 28.74 27.15C30.44 25.44 23.36 10.02 19.31 5.98001Z" fill="#8D65C5"/>
</svg>

<svg xmlns="http://www.w3.org/2000/svg" width="32" height="32" fill="none"><path fill="#433B6B" d="M8.986 8.9 28.044 27.88a1 1 0 0 0 1.412-1.418L10.4 7.486 8.986 8.9Z"/><path fill="#8C5543" fill-rule="evenodd" d="M6.506 6.43a1.475 1.475 0 0 0-2.079.007 1.466 1.466 0 0 0 .01 2.076 1 1 0 1 1-1.414 1.414 3.466 3.466 0 0 1-.01-4.904 3.475 3.475 0 0 1 4.9-.014l.003.003 2.51 2.5a1 1 0 0 1-1.412 1.417L6.507 6.43l-.001-.001Z" clip-rule="evenodd"/><path fill="#8D65C5" d="M19.31 5.98c-.9-.9-3.12.98-3.14 2.51h.02l-.02.02v-.02c-1.73 0-3.13 1.39-3.14 3.12a3.137 3.137 0 0 0-3.15 3.12c-1.47-.01-3.27 2.24-2.43 3.07 4.07 4.05 19.51 11.14 21.29 9.35 1.7-1.71-5.38-17.13-9.43-21.17Z"/></svg>
